!! 00000] TT[WS
!!!OTL: Shao shu
!!!ARE: Asia, China,ÿShanxi Quwo
!! Ethnic Group: Han
!! WI, 117 (2)
!!!SCT: J0138
!!!YEM: Copyright 1995, estate of Helmut Schaffrath.
**kern
*ICvox
*Ivox
*M2/4
*k[b-e-a-]
*E-:
{8f
16f
16b-
16g
16f
16c
16e-
=1
4f
4f}
=2
{8ee-
16cc
16b-
8a-
8b-
=3
8f
16f
16b-
16g
16f
16c
16e-
=4
4f
4f}
=5
{8ee-
16cc
16b-
8a-
8b-
=6
8ee-
16cc
16b-
8a-
8b-
=7
8f
16f
16b-
8e-
16c
16e-
=8
4f
4f}
=9
{8b-
8d
16b-
8.d
=10
8B-
8e-
8d
16c
16B-
=11
8A-
8B-
8F
8A-}
=12
{8B-
8e-
8.A-
16B-
=13
8c
8B-
8F
8B-
=14
8A-
16G
16F
4E-}
==
!!!AGN: Xiaodiao. Qingge
!!!ONB: ESAC (Essen Associative Code) Database: CHINA
!!!AMT: simple duple
!!!AIN: vox
!!!EED: Helmut Schaffrath
!!!EEV: 1.0
*-
